X: 6639
T: Ceanngulla, The
R: slide
M: 12/8
K: Dmajor
A3 AFA d3 d2A|def g2e fed B2A|
d2B AFA d2c d2e|1 f2b afd e3 d2B:|2 f2b afd e3 def||
|:g3 bge fdf a2f|e2f a2f efd B2A|
d2B AFA d2c d2e|1 f2b afd e3 def:|2 f2b afd e3 d2B||

